X:1469
L:1/8
Q:3/8=90
M:9/8
K:Dmin
 dag fed ^c=BA | dag fed a2 A | abc' c'a^f fed | gab bge edc | fga afd dBG | GAB c>fe f2 g | 
 a(b/a/g/f/) g(a/g/f/e/) f(g/f/e/d/) | e(f/e/d/c/)"^NB" de>=B ^c2 A | d2 z e2 z f2 g | 
 ade A>d^c d3 |]

